Assets/Group.svg

<svg fill="none" height="56" viewBox="0 0 264 56" width="264" xmlns="http://www.w3.org/2000/svg"><g fill="#fff"><path d="m1.58 55.33c-1 0-1.58-.57-1.58-1.22 0-1.51 3.1-3.17 3.1-6.05v-39.81996c0-2.88-3.1-4.53001-3.1-6.05001 0-.64.58-1.219998 1.58-1.219998h21.82c5.33 0 7.85 2.520008 7.85 6.910008v10.99996c0 2.59-2.38 4.32-3.82 5.54 1.95 1.37 5.69 3.46 5.69 6.34v19c0 3.67-3.17 5.54-6.84 5.54zm11.17-46.43997v15.33997l7.63-4.75c.3321-.2009.6144-.4744.8257-.8s.3461-.6948.3943-1.08v-7.76997c0-.8-.14-.94-1-.94zm9.72 38.51997c.72 0 1-.28 1-1v-12.25c0-1-4.46-4.24-4.46-4.24l-5.47 3.67c-.58.43-.79.72-.79 1.22v12.6z"/><path d="m72.1499 54.11c-.0543.3569-.2407.6803-.5222.9063-.2815.2259-.6376.3379-.9978.3137h-12.45c-1 0-1.66-.57-1.66-1.22 0-1.08 1.66-1.3 1.66-2.88 0-.79-5-13.68-5-13.68l-2.67 1.66c-.21.14-.29.35-.29.79v8.06c0 2.88 3.1 4.54 3.1 6.05 0 .65-.58 1.22-1.58 1.22h-12.74c-1 0-1.58-.57-1.58-1.22 0-1.51 3.1-3.17 3.1-6.05v-39.81996c0-2.88-3.1-4.53001-3.1-6.05001 0-.64.58-1.219998 1.58-1.219998l21.82-.070008c4.83 0 7.85 2.160006 7.85 6.910006v16.91997c0 3.1-3.24 5-6.55 7.06 3 8.5 6 16.13 6.48 17.06 2.18 3.82 3.55 3.68 3.55 5.26zm-22-45.21997v20.22997l7.13-4.89c1.59-1.08 1.73-1.66 1.73-2.16v-12.23997c0-.65-.29-.94-1-.94z"/><path d="m75.89 55.33c-1 0-1.59-.57-1.59-1.22 0-1.51 3.1-3.17 3.1-6.05v-39.81996c0-2.88-3.1-4.53001-3.1-6.05001 0-.64.58-1.219998 1.59-1.219998h25.2c1.73 0 2.45.719998 2.45 2.449998v8.20997c0 1.08-.22 1.44-.79 1.87-1.16.86-6.77 4.68-7.64 4.68-.3385-.0327-.6522-.1919-.8784-.4459s-.3482-.584-.3416-.9241v-7.91997h-5.89c-.2343.00164-.4595.09074-.6316.24983-.172.15909-.2784.3767-.2984.61017v17.64997l6.41-4c.5419-.4136 1.1908-.6634 1.87-.72.1915.0049.3799.0486.5538.1287.1739.08.3298.1946.4579.3369.1282.1422.2261.309.2877.4903s.0856.3733.0706.5641v6.62c.0609.5009-.0391 1.0081-.2853 1.4485-.2463.4404-.6261.7911-1.0847 1.0015l-8.28 5.25v8.07c.0039.1178.0311.2336.0801.3408.0489.1072.1187.2036.2052.2836s.1881.142.2988.1825c.1106.0404.2282.0585.3459.0531h5.91v-4.53c0-1.08.21-1.44.79-1.88 1.15-.86 6.77-4.68 7.63-4.68.34.0303.657.1886.885.4428.228.2543.351.5856.345.9272v15.2c0 1.72-.72 2.44-2.45 2.44z"/><path d="m147.82 33.23s5.11-24.40997 5.11-25.70997c0-2-2.3-3.81-2.3-5.33 0-.64.57-1.219998 1.58-1.219998h12.67c1 0 1.59.579998 1.59 1.219998 0 1.52-2.88 3.53-3.46 6.12l-8.86 40.61997c-.28 1.36 2 3.81 2 5.18 0 .65-.58 1.22-1.58 1.22h-11.79c-1 0-1.59-.57-1.59-1.22 0-1.37 1.95-3.82 1.95-5.18l-6.7-24.63-6.7 24.63c0 1.36 1.95 3.81 1.95 5.18 0 .65-.58 1.22-1.59 1.22h-11.81c-1 0-1.58-.57-1.58-1.22 0-1.37 1.94-3.82 2-5.18l-8.86-40.61997c-.58-2.59-3.46-4.6-3.46-6.12 0-.64.58-1.219998 1.59-1.219998h12.67c1 0 1.59.579998 1.59 1.219998 0 1.52-2.31 3.32-2.31 5.33 0 1.3 5.11 25.70997 5.11 25.70997l6.2-25.84996c.28-1.3-1.95-3.82001-1.95-5.19001 0-.64.58-1.219998 1.59-1.219998h11.12c1 0 1.59.579998 1.59 1.219998 0 1.37-2.3 3.89001-2 5.19001z"/><path d="m214.85 49.5c0 2.74-2.74 5.83-7.13 5.83h-13.47c-3.88 0-6.84-1.94-6.84-5.54v-43.27997c0-3.6 3-5.539998 6.84-5.539998h12.75c4.25 0 7.13 2.949998 7.13 5.899998v6.91997c0 1.08-.22 1.44-.79 1.87-1.16.86-6.77 4.68-7.64 4.68-.339-.0327-.652-.1919-.879-.4459-.226-.254-.348-.584-.341-.9241v-9.13997c-.014-.24464-.118-.47552-.291-.6488-.174-.17329-.404-.27691-.649-.2912h-5.54c-.245.01429-.476.11791-.649.2912-.173.17328-.277.40416-.291.6488v36.64997c.017.2429.121.4713.294.6426.173.1712.403.2734.646.2874h6.26c.243-.014.473-.1162.646-.2874.173-.1713.277-.3997.294-.6426v-6c0-1.08.22-1.44.79-1.87 1.15-.87 6.77-4.68 7.63-4.68.341.028.659.1856.887.4403.229.2548.352.5875.343.9297z"/><path d="m219.88 49.5v-42.69997c0-3.81 3-5.829998 6.85-5.829998h14.18c4.32 0 7.13 2.999998 7.13 6.189998v41.99997c0 2.95-2.74 6.19-7.13 6.19h-14.18c-3.89-.02-6.85-2.1-6.85-5.85zm10.12-2.09h7.85c.129-.0093.251-.0649.343-.1567.092-.0919.148-.2137.157-.3433v-37.51997c0-.13261-.053-.25978-.147-.35355-.093-.09376-.221-.14645-.353-.14645h-7.85c-.067-.00133-.133.01063-.195.03516-.061.02453-.118.06115-.165.10771-.048.04656-.085.10213-.111.16345s-.039.12717-.039.19368v37.51997c.009.1312.067.2543.16.3464.094.092.219.1467.35.1536z"/><path d="m252.57 46.77c0-1.3.51-1.8 1.73-1.8h7.2c1.23 0 1.8.5 1.8 1.8v6.84c0 1.29-.57 1.8-1.8 1.8h-7.13c-1.22 0-1.8-.51-1.8-1.8z"/></g></svg>

<svg width="264" height="56" viewBox="0 0 264 56" fill="none" xmlns="http://www.w3.org/2000/svg">
<path d="M1.58 55.33C0.58 55.33 0 54.76 0 54.11C0 52.6 3.1 50.94 3.1 48.06V8.24004C3.1 5.36004 0 3.71003 0 2.19003C0 1.55003 0.58 0.970032 1.58 0.970032H23.4C28.73 0.970032 31.25 3.49004 31.25 7.88004V18.88C31.25 21.47 28.87 23.2 27.43 24.42C29.38 25.79 33.12 27.88 33.12 30.76V49.76C33.12 53.43 29.95 55.3 26.28 55.3L1.58 55.33ZM12.75 8.89003V24.23L20.38 19.48C20.7121 19.2791 20.9944 19.0056 21.2057 18.68C21.417 18.3544 21.5518 17.9852 21.6 17.6V9.83003C21.6 9.03003 21.46 8.89003 20.6 8.89003H12.75ZM22.47 47.41C23.19 47.41 23.47 47.13 23.47 46.41V34.16C23.47 33.16 19.01 29.92 19.01 29.92L13.54 33.59C12.96 34.02 12.75 34.31 12.75 34.81V47.41H22.47Z" fill="white"/>
<path d="M72.1499 54.11C72.0956 54.4669 71.9092 54.7903 71.6277 55.0163C71.3462 55.2422 70.9901 55.3542 70.6299 55.33H58.1799C57.1799 55.33 56.5199 54.76 56.5199 54.11C56.5199 53.03 58.1799 52.81 58.1799 51.23C58.1799 50.44 53.1799 37.55 53.1799 37.55L50.5099 39.21C50.2999 39.35 50.2199 39.56 50.2199 40V48.06C50.2199 50.94 53.3199 52.6 53.3199 54.11C53.3199 54.76 52.7399 55.33 51.7399 55.33H38.9999C37.9999 55.33 37.4199 54.76 37.4199 54.11C37.4199 52.6 40.5199 50.94 40.5199 48.06V8.24004C40.5199 5.36004 37.4199 3.71003 37.4199 2.19003C37.4199 1.55003 37.9999 0.970032 38.9999 0.970032L60.8199 0.900024C65.6499 0.900024 68.6699 3.06003 68.6699 7.81003V24.73C68.6699 27.83 65.4299 29.73 62.1199 31.79C65.1199 40.29 68.1199 47.92 68.5999 48.85C70.7799 52.67 72.1499 52.53 72.1499 54.11V54.11ZM50.1499 8.89003V29.12L57.2799 24.23C58.8699 23.15 59.0099 22.57 59.0099 22.07V9.83003C59.0099 9.18003 58.7199 8.89003 58.0099 8.89003H50.1499Z" fill="white"/>
<path d="M75.89 55.33C74.89 55.33 74.3 54.76 74.3 54.11C74.3 52.6 77.4 50.94 77.4 48.06V8.24004C77.4 5.36004 74.3 3.71003 74.3 2.19003C74.3 1.55003 74.88 0.970032 75.89 0.970032H101.09C102.82 0.970032 103.54 1.69003 103.54 3.42003V11.63C103.54 12.71 103.32 13.07 102.75 13.5C101.59 14.36 95.98 18.18 95.11 18.18C94.7715 18.1473 94.4578 17.9881 94.2316 17.7341C94.0054 17.4801 93.8834 17.1501 93.89 16.81V8.89003H88C87.7657 8.89167 87.5405 8.98077 87.3684 9.13986C87.1964 9.29895 87.09 9.51656 87.07 9.75003V27.4L93.48 23.4C94.0219 22.9864 94.6708 22.7366 95.35 22.68C95.5415 22.6849 95.7299 22.7286 95.9038 22.8087C96.0777 22.8887 96.2336 23.0033 96.3617 23.1456C96.4899 23.2878 96.5878 23.4546 96.6494 23.6359C96.711 23.8172 96.735 24.0092 96.72 24.2V30.82C96.7809 31.3209 96.6809 31.8281 96.4347 32.2685C96.1884 32.7089 95.8086 33.0596 95.35 33.27L87.07 38.52V46.59C87.0739 46.7078 87.1011 46.8236 87.1501 46.9308C87.199 47.038 87.2688 47.1344 87.3553 47.2144C87.4418 47.2944 87.5434 47.3564 87.6541 47.3969C87.7647 47.4373 87.8823 47.4554 88 47.45H93.91V42.92C93.91 41.84 94.12 41.48 94.7 41.04C95.85 40.18 101.47 36.36 102.33 36.36C102.67 36.3903 102.987 36.5486 103.215 36.8028C103.443 37.0571 103.566 37.3884 103.56 37.73V52.93C103.56 54.65 102.84 55.37 101.11 55.37L75.89 55.33Z" fill="white"/>
<path d="M147.82 33.23C147.82 33.23 152.93 8.82003 152.93 7.52003C152.93 5.52003 150.63 3.71003 150.63 2.19003C150.63 1.55003 151.2 0.970032 152.21 0.970032H164.88C165.88 0.970032 166.47 1.55003 166.47 2.19003C166.47 3.71003 163.59 5.72003 163.01 8.31003L154.15 48.93C153.87 50.29 156.15 52.74 156.15 54.11C156.15 54.76 155.57 55.33 154.57 55.33H142.78C141.78 55.33 141.19 54.76 141.19 54.11C141.19 52.74 143.14 50.29 143.14 48.93L136.44 24.3L129.74 48.93C129.74 50.29 131.69 52.74 131.69 54.11C131.69 54.76 131.11 55.33 130.1 55.33H118.29C117.29 55.33 116.71 54.76 116.71 54.11C116.71 52.74 118.65 50.29 118.71 48.93L109.85 8.31003C109.27 5.72003 106.39 3.71003 106.39 2.19003C106.39 1.55003 106.97 0.970032 107.98 0.970032H120.65C121.65 0.970032 122.24 1.55003 122.24 2.19003C122.24 3.71003 119.93 5.51003 119.93 7.52003C119.93 8.82003 125.04 33.23 125.04 33.23L131.24 7.38004C131.52 6.08004 129.29 3.56003 129.29 2.19003C129.29 1.55003 129.87 0.970032 130.88 0.970032H142C143 0.970032 143.59 1.55003 143.59 2.19003C143.59 3.56003 141.29 6.08004 141.59 7.38004L147.82 33.23Z" fill="white"/>
<path d="M214.85 49.5C214.85 52.24 212.11 55.33 207.72 55.33H194.25C190.37 55.33 187.41 53.39 187.41 49.79V6.51003C187.41 2.91003 190.41 0.970032 194.25 0.970032H207C211.25 0.970032 214.13 3.92003 214.13 6.87003V13.79C214.13 14.87 213.91 15.23 213.34 15.66C212.18 16.52 206.57 20.34 205.7 20.34C205.361 20.3073 205.048 20.1481 204.821 19.8941C204.595 19.6401 204.473 19.3101 204.48 18.97V9.83003C204.466 9.58539 204.362 9.35451 204.189 9.18123C204.015 9.00794 203.785 8.90432 203.54 8.89003H198C197.755 8.90432 197.524 9.00794 197.351 9.18123C197.178 9.35451 197.074 9.58539 197.06 9.83003V46.48C197.077 46.7229 197.181 46.9513 197.354 47.1226C197.527 47.2938 197.757 47.396 198 47.41H204.26C204.503 47.396 204.733 47.2938 204.906 47.1226C205.079 46.9513 205.183 46.7229 205.2 46.48V40.48C205.2 39.4 205.42 39.04 205.99 38.61C207.14 37.74 212.76 33.93 213.62 33.93C213.961 33.958 214.279 34.1156 214.507 34.3703C214.736 34.6251 214.859 34.9578 214.85 35.3V49.5Z" fill="white"/>
<path d="M219.88 49.5V6.80003C219.88 2.99003 222.88 0.970032 226.73 0.970032H240.91C245.23 0.970032 248.04 3.97003 248.04 7.16003V49.16C248.04 52.11 245.3 55.35 240.91 55.35H226.73C222.84 55.33 219.88 53.25 219.88 49.5V49.5ZM230 47.41H237.85C237.979 47.4007 238.101 47.3451 238.193 47.2533C238.285 47.1614 238.341 47.0396 238.35 46.91V9.39003C238.35 9.25742 238.297 9.13025 238.203 9.03648C238.11 8.94272 237.982 8.89003 237.85 8.89003H230C229.933 8.8887 229.867 8.90066 229.805 8.92519C229.744 8.94972 229.687 8.98634 229.64 9.0329C229.592 9.07946 229.555 9.13503 229.529 9.19635C229.503 9.25767 229.49 9.32352 229.49 9.39003V46.91C229.499 47.0412 229.557 47.1643 229.65 47.2564C229.744 47.3484 229.869 47.4031 230 47.41V47.41Z" fill="white"/>
<path d="M252.57 46.77C252.57 45.47 253.08 44.97 254.3 44.97H261.5C262.73 44.97 263.3 45.47 263.3 46.77V53.61C263.3 54.9 262.73 55.41 261.5 55.41H254.37C253.15 55.41 252.57 54.9 252.57 53.61V46.77Z" fill="white"/>
</svg>
